src/assets/linkedin.svg

<svg xmlns="http://www.w3.org/2000/svg" width="24" height="24">
    <path d="M19 0H5a5 5 0 00-5 5v14a5 5 0 005 5h14a5 5 0 005-5V5a5 5 0 00-5-5z" fill="#fff"/>
    <path d="M19 0H5a5 5 0 00-5 5v14a5 5 0 005 5h14a5 5 0 005-5V5a5 5 0 00-5-5zM8 19H5V8h3zM6.5 6.732a1.764 1.764 0 111.75-1.764A1.758 1.758 0 016.5 6.732zM20 19h-3v-5.6c0-3.368-4-3.113-4 0V19h-3V8h3v1.765c1.4-2.586 7-2.777 7 2.476z" fill="#0073b1"/>
</svg>

<svg xmlns="http://www.w3.org/2000/svg" width="24" height="24" viewBox="0 0 24 24">
  <g id="Group_12" data-name="Group 12" transform="translate(-56 -229)">
    <path id="iconmonstr-linkedin-3" d="M19,0H5A5,5,0,0,0,0,5V19a5,5,0,0,0,5,5H19a5,5,0,0,0,5-5V5A5,5,0,0,0,19,0Z" transform="translate(56 229)" fill="#fff"/>
    <path id="iconmonstr-linkedin-3-2" data-name="iconmonstr-linkedin-3" d="M19,0H5A5,5,0,0,0,0,5V19a5,5,0,0,0,5,5H19a5,5,0,0,0,5-5V5A5,5,0,0,0,19,0ZM8,19H5V8H8ZM6.5,6.732A1.764,1.764,0,1,1,8.25,4.968,1.758,1.758,0,0,1,6.5,6.732ZM20,19H17V13.4c0-3.368-4-3.113-4,0V19H10V8h3V9.765c1.4-2.586,7-2.777,7,2.476Z" transform="translate(56 229)" fill="#0073b1"/>
  </g>
</svg>
